modules/hawcons-filled/icons/icon-24-one-finger-tap.svg

<?xml version="1.0" encoding="UTF-8" standalone="no"?>
<svg width="32px" height="32px" viewBox="0 0 32 32" version="1.1" xmlns="http://www.w3.org/2000/svg" xmlns:xlink="http://www.w3.org/1999/xlink" xmlns:sketch="http://www.bohemiancoding.com/sketch/ns">
    <!-- Generator: Sketch 3.0.3 (7891) - http://www.bohemiancoding.com/sketch -->
    <title>icon 24 one finger tap</title>
    <desc>Created with Sketch.</desc>
    <defs></defs>
    <g id="Page-1" stroke="none" stroke-width="1" fill="none" fill-rule="evenodd" sketch:type="MSPage">
        <g id="icon-24-one-finger-tap" sketch:type="MSArtboardGroup" fill="#929292">
            <path d="M16,8.94949144 C16.6185935,8.3182229 17,7.4536526 17,6.5 C17,4.56700328 15.4329967,3 13.5,3 C11.5670033,3 10,4.56700328 10,6.5 C10,7.4536526 10.3814065,8.3182229 11,8.94949144 L11,6.50098635 C11,5.12893087 12.1192881,4 13.5,4 C14.8903379,4 16,5.11972973 16,6.50098635 L16,8.94949144 L16,8.94949144 Z M19,11.4908981 C19,10.6674978 18.3342028,10 17.5,10 C16.6715729,10 16,10.6762201 16,11.4908981 L16,13.4325233 L16,16 L15,16 L15,13.5 L15,6.50863659 C15,5.67543961 14.3342028,5 13.5,5 C12.6715729,5 12,5.66642015 12,6.50863659 L12,16.7983451 C9.94160039,14.5979243 7.23162978,12.1791206 6.12103271,13.2957153 C5.03386293,14.3887562 7.83536199,17.4007216 11.7473755,23.9830936 C13.5099958,26.9488875 15.7402849,28.9995418 19.5,29 C23.6421358,29 27,25.6421358 27,21.5 L27,18.2468012 L27,13.5063976 C27,12.6744372 26.3342028,12 25.5,12 C24.6715729,12 24,12.6764628 24,13.5063976 L24,15.7497253 L24,16 L23,16 L23,13.6781559 L23,12.4912653 C23,11.6676622 22.3342028,11 21.5,11 C20.6715729,11 20,11.6625444 20,12.4912653 L20,13.5082011 L20,15 L19,15 L19,13.5082011 L19,11.4908981 L19,11.4908981 Z" id="one-finger-tap" sketch:type="MSShapeGroup"></path>
        </g>
    </g>
</svg>

<svg width="32" height="32" xmlns="http://www.w3.org/2000/svg"><path d="M16 8.95a3.5 3.5 0 1 0-5 0V6.5A2.506 2.506 0 0 1 13.5 4C14.89 4 16 5.12 16 6.501v2.448zm3 2.54c0-.823-.666-1.49-1.5-1.49-.828 0-1.5.676-1.5 1.49V16h-1V6.509a1.5 1.5 0 1 0-3 0v10.29c-2.058-2.201-4.768-4.62-5.879-3.503-1.087 1.093 1.714 4.105 5.626 10.687C13.51 26.95 15.74 29 19.5 29a7.5 7.5 0 0 0 7.5-7.5v-7.993a1.5 1.5 0 1 0-3 0V16h-1V12.491c0-.823-.666-1.491-1.5-1.491-.828 0-1.5.663-1.5 1.491V15h-1v-3.509z" fill="#929292" fill-rule="evenodd"/></svg>
